X:1
T:Title
%%score 1 { 2 | 3 }
L:1/8
Q:1/4=120
M:9/8
K:Bb
V:1 treble nm="MusicXML Part"
V:2 treble nm="MusicXML Part"
V:3 bass 
V:1
"^Jeder sein eigner Richter   TWV 25, No. 85""^Singe-, Spiel und Generalbaßübungen (1733/34)" BAG c2 B A2 G | %1
w: Ich will vor mei- ner thü- re|
 AGF BAG c2"^Georg Philipp Telemann (1681-1767)""^Text: Daniel Stoppe (1697-1747)" B | %2
w: keh * ren; ich ha- be gnug für|
 AGF !fermata!B3 d3 :| c3 c3 c3 | cAB cAB cAF | d3 d3 d3 | dBc dBc dBG | e3 d3 c3 | B3 A3 G3 | %9
w: mich * zu thun; ich|ich ke- nne|mich, * ich bin * kein en * gel;|ein je- der|mensch * hat sei * ne mä * ngel,|wer die- se|til- gen will,|
 A3 BAG AG^F | GAB BAG AG^F | GAB BAG AG^F | G3 B3 z3 |] %13
w: darf le * bens- lang * nicht|ruhn, * wer die * se til * gen|will, * darf le * bens- lang * nicht|ruhn. Ich|
V:2
 [B,FB]2 [B,EG] [EGc]2 [CGB] [CFA]2 [CGB] | [CFA]3 [B,FB]2 [B,EG] [EGc]2 [CGB] | %2
 [CFA]3 !fermata![DFB]3 z3 :| [CGc]3 [CGc]3 [CGc]3 | [CFA]3 [CFA]3 [FAc]3 | [DAd]3 [DAd]3 [DAd]3 | %6
 [DGB]3 [DGB]3 [GBd]3 | [EGc]3 [DGd]3 [EGc]2 [Gce] | [GBd]3 [^FAd]3 [DGd]3 | %9
 [EGA]3 [DGB]3 [D^FA]3 | [DGd]3 [DGB]3 [D^FA]3 | [DGd]3 [DGB]3 [D^FA]3 | [DGB]3 z3 P[EGB]3 |] %13
V:3
 D,2 E,C,D,=E, F,2 E, | F,2 E, D,2 E, C,D,=E, | F,3 !fermata!B,,3 z3 :| =E,C,D, E,C,D, E,C,E, | %4
 F,3 F,3 F,3 | ^F,D,=E, F,D,E, F,D,F, | G,3 G,3 G,3 | C,B,,A,,"^6" B,,A,,G,,"^6" E,D,C, | %8
"^6\n4" D,C,B,,"^4" C,B,,A,, B,,A,,G,, |"^6\n5" C,B,,A,,"^6\n4" D,3"^4" C,3 | %10
"^Hiermit beschließen wir diese übungen, und wünschen, dass der abgezielte zweck, zu nützen und zu belustigen, erlanget \nseyn möge. Wir gestehen, dass noch manches übrig ist, so zur lehre vom general-basse gehöret. Dennoch aber wird das\nmehreste mit den vorgetragenen anmerkungen verwandt seyn, und wer solche recht erwogen, dem kann es nicht schwer \nfallen, das sonst noch vorkommende einzusehen.  [...] Uebrigens wollen unsre beurtheiler den inhalt der obstehenden \nArie mit uns gemeinschaftlich beobachten!" B,,A,,G,,"^6\n4" D,3"^4" C,3 | %11
 B,,A,,G,,"^6\n4" D,3 D,,3 | G,,3 z3"^6" G,F,PE, |] %13

